X:074
U: ~ = !turn!
%%topmargin 3cm
T:The Forest Road
B:Traditional Irish Fiddle Tunes. Randy Miller and Jack Perron.
Z:Transcribed by Ralph Palmer
R:Jig
M:3/4
L:1/8
K:G
GAG ~B3 | ded g2 d | egb age | dBA dBA |
GAG ~B3 | ded g2 d | efg age | dBA GED ::
GBd edB | deg ~a3 | bg{/a}g edB | AGB AGE |
GBd edB | deg aga | bg{/a}g edB | edB edB :|]
